public/svg/ribbons.svg

<svg width="374" height="96" viewBox="0 0 374 96" fill="none" xmlns="http://www.w3.org/2000/svg">
<path d="M372.186 22.0027C369.576 21.5328 366.965 21.7416 364.537 21.2456C363.462 21.0225 362.399 20.7437 361.353 20.4103C364.366 19.501 367.074 17.786 369.184 15.4503C371.351 13.0226 373.491 9.23733 371.795 5.94811C370.098 2.65888 365.738 3.75529 363.363 5.94811C361.683 7.48621 360.217 9.24212 359.003 11.1691C357.489 5.21717 354.409 -2.74485 349.553 0.935954C347.204 2.7372 347.647 7.14893 348.117 9.68112C348.662 12.7985 350.084 15.6961 352.216 18.0347C302.616 51.7101 241.479 52.7021 183.552 51.2924C127.583 49.935 68.22 50.692 18.9078 20.6191C20.8803 18.9775 22.234 16.7122 22.7452 14.1973C22.9682 12.6753 22.6982 11.122 21.9749 9.76447C21.2515 8.40697 20.1127 7.31662 18.725 6.65294C18.0056 6.41606 17.2457 6.32657 16.4909 6.38981C15.7361 6.45305 15.0018 6.66771 14.3317 7.021C13.6617 7.37429 13.0697 7.85895 12.5911 8.44606C12.1125 9.03316 11.7571 9.71068 11.5462 10.4382L11.3895 10.8297C11.1807 10.5165 10.998 10.1771 10.763 9.86385C8.70072 7.25335 4.3934 4.79949 1.46964 7.59272C-1.45411 10.3859 0.477653 14.0929 2.98373 16.0246C5.62637 18.0201 8.58146 19.5638 11.7289 20.593C11.7289 20.9846 11.8855 21.3761 11.9638 21.7677C12.0182 22.0018 12.1463 22.2123 12.3293 22.3681C11.0914 24.3774 10.0511 26.5018 9.22281 28.7116C8.02934 31.2156 7.11032 33.8414 6.48179 36.5431C6.44245 36.8318 6.50941 37.1249 6.67018 37.3679C6.83095 37.6109 7.07458 37.7871 7.35567 37.8638C7.63675 37.9404 7.93612 37.9123 8.19799 37.7846C8.45986 37.6569 8.66636 37.4383 8.77903 37.1696C9.77102 34.7419 10.3453 32.1575 11.2068 29.6775C12.0683 27.1975 13.1125 25.0569 13.8173 22.6553C14.0526 22.9216 14.3614 23.1123 14.7049 23.2035C13.8719 25.4041 13.5336 27.7611 13.7141 30.1072C13.8945 32.4532 14.5893 34.7308 15.7491 36.7781C16.4539 37.9267 18.5162 37.1957 18.0202 35.8122C17.1424 33.7936 16.5282 31.6703 16.1928 29.4948C16.0537 27.3126 16.1764 25.1216 16.5583 22.9685C16.5909 22.8578 16.5909 22.7399 16.5583 22.6292L17.2631 22.0549C22.7775 26.0293 28.59 29.5727 34.649 32.6535C30.1466 45.3964 24.347 57.643 17.3415 69.2004C16.4278 70.6362 17.9419 72.072 19.3515 71.8109C27.8238 70.6239 35.9525 67.6713 43.2115 63.1441C45.4331 70.4418 48.5087 77.4516 52.3743 84.028C52.533 84.2872 52.7555 84.5014 53.0206 84.65C53.2857 84.7985 53.5845 84.8765 53.8884 84.8765C54.1923 84.8765 54.4911 84.7985 54.7562 84.65C55.0213 84.5014 55.2439 84.2872 55.4025 84.028C62.5553 72.5158 70.5956 60.7424 76.2865 48.3948C76.4053 48.1741 76.4675 47.9275 76.4675 47.6769C76.4675 47.4263 76.4053 47.1796 76.2865 46.959L80.3327 47.7944C80.2664 47.8817 80.2137 47.9785 80.1761 48.0815C75.9221 61.4969 72.9759 75.2924 71.3787 89.2751C71.2221 90.6326 72.945 91.3374 73.9892 90.7631C81.403 86.6211 88.6515 82.2181 95.7346 77.554C100.956 83.2971 106.725 88.7269 112.337 94.1829C112.587 94.4215 112.9 94.5823 113.24 94.6454C113.579 94.7086 113.93 94.6714 114.248 94.5384C114.567 94.4054 114.84 94.1824 115.034 93.8967C115.227 93.611 115.334 93.275 115.339 92.9298C115.705 79.8773 117.663 66.616 117.297 53.6158C117.294 53.3499 117.202 53.0929 117.036 52.8848C120.769 53.172 124.502 53.4069 128.235 53.6158C126.982 66.6683 128.522 80.2167 129.018 93.2431C129.008 93.5514 129.084 93.8566 129.236 94.1247C129.389 94.3928 129.613 94.6134 129.883 94.762C130.153 94.9107 130.46 94.9816 130.768 94.967C131.076 94.9523 131.374 94.8526 131.629 94.6789C137.585 90.5784 143.262 86.0872 148.623 81.2348C152.532 86.2796 156.969 90.8917 161.859 94.9921C162.72 95.7231 164.469 95.6186 164.704 94.2351C166.766 81.1826 168.568 67.3992 173.71 55.0776H176.19C178.252 67.7908 181.568 80.3472 184.726 92.8254C184.801 93.0872 184.943 93.3249 185.138 93.515C185.333 93.7052 185.574 93.8413 185.838 93.9098C186.102 93.9783 186.378 93.9769 186.641 93.9058C186.904 93.8347 187.144 93.6962 187.337 93.5041C192.31 89.2081 196.482 84.0641 199.659 78.3111C205.454 83.2188 211.536 87.7872 217.593 92.3555C218.689 93.1648 220.203 92.0423 220.203 90.8936C220.49 79.4597 221.874 66.8771 219.942 55.5475H225.006C227.617 67.608 231.742 79.4858 235.292 91.2852C235.376 91.5398 235.522 91.7696 235.716 91.9539C235.911 92.1382 236.148 92.2713 236.407 92.3412C236.666 92.4111 236.938 92.4156 237.199 92.3543C237.46 92.293 237.702 92.1678 237.902 91.9901C242.497 86.4819 247.117 80.9999 251.686 75.4656V75.3351C257.593 80.302 264.122 84.4791 271.108 87.761C272.152 88.257 273.849 87.761 273.718 86.2731C272.596 75.1785 272.674 62.7786 269.803 52.1278C271.926 51.8319 274.04 51.51 276.146 51.1619C279.174 62.3087 284.865 73.325 289.46 83.8975C289.592 84.112 289.771 84.2942 289.983 84.4309C290.194 84.5676 290.434 84.6554 290.684 84.6879C290.934 84.7204 291.188 84.6968 291.428 84.6188C291.668 84.5408 291.887 84.4103 292.07 84.2369C297.76 79.3777 302.781 73.7861 307.002 67.608C307.01 67.5212 307.01 67.4338 307.002 67.347C314.609 71.6308 322.685 75.0208 331.071 77.4496C331.328 77.517 331.597 77.525 331.858 77.473C332.118 77.4209 332.363 77.3101 332.575 77.1491C332.786 76.988 332.958 76.7809 333.077 76.5435C333.197 76.3061 333.26 76.0446 333.264 75.7789C333.029 69.6964 330.34 64.1622 328.252 58.5235C325.902 52.1539 323.553 45.7582 321.177 39.3886C321.121 39.2675 321.051 39.1536 320.968 39.0492C333.073 34.2938 344.592 28.1623 355.296 20.7757C355.867 23.1571 357.163 25.3025 359.006 26.9157C360.848 28.529 363.146 29.5305 365.582 29.7819C365.902 29.781 366.212 29.6646 366.453 29.4539C366.695 29.2433 366.852 28.9526 366.896 28.6352C366.941 28.3178 366.869 27.995 366.695 27.7261C366.521 27.4573 366.255 27.2603 365.947 27.1714C363.752 26.7046 361.717 25.6694 360.047 24.1694C359.38 23.4728 358.833 22.67 358.429 21.7938C362.62 23.9462 367.34 24.8521 372.03 24.4043C372.348 24.4251 372.662 24.3185 372.902 24.108C373.141 23.8975 373.288 23.6003 373.309 23.2818C373.329 22.9633 373.223 22.6496 373.012 22.4097C372.802 22.1699 372.505 22.0234 372.186 22.0027ZM3.14036 10.4382C3.56541 9.99177 4.12618 9.69851 4.73529 9.60407C5.3444 9.50964 5.96764 9.61933 6.5079 9.91606C7.03807 10.2605 7.52078 10.673 7.94367 11.143C8.75512 12.0156 9.40876 13.0226 9.87544 14.119C10.0736 14.5707 10.2479 15.0325 10.3975 15.5025C10.4035 16.1505 10.4646 16.7967 10.5803 17.4343C6.35127 15.4242 1.67848 12.7093 3.14036 10.4382ZM15.6446 19.5749L14.3655 19.0528C14.1273 17.3814 13.7251 15.7376 13.1647 14.1451C13.2139 13.776 13.2836 13.41 13.3735 13.0487C14.0783 10.6731 16.3495 7.46219 18.8294 10.2032C21.7793 13.5708 18.3857 17.1732 15.6446 19.5749ZM73.5193 46.9851C66.2361 57.4271 60.1536 68.8611 53.8362 79.7729C50.4425 73.6383 47.5449 67.2948 44.4906 60.9774C44.4404 60.87 44.3692 60.7739 44.2812 60.6945C44.1932 60.6151 44.0902 60.5542 43.9783 60.5152C43.8664 60.4763 43.7478 60.4602 43.6296 60.4678C43.5113 60.4755 43.3958 60.5067 43.2898 60.5597C43.0735 60.4574 42.8372 60.4044 42.598 60.4044C42.3588 60.4044 42.1225 60.4574 41.9062 60.5597C35.6414 63.4489 29.1553 65.832 22.5102 67.6863C29.1023 57.2892 33.7793 45.7957 36.3198 33.7499C48.3093 39.5471 60.9335 43.9274 73.937 46.8024C73.7904 46.8448 73.65 46.9062 73.5193 46.9851ZM114.739 53.172C112.129 64.606 112.129 77.0319 111.894 88.8575C107.143 84.3935 102.13 79.8512 97.0138 75.7006C97.0239 75.3933 96.9463 75.0895 96.79 74.8248C96.6338 74.56 96.4053 74.3453 96.1315 74.2056C95.8576 74.0659 95.5497 74.0071 95.2436 74.0361C94.9375 74.0651 94.6461 74.1806 94.4033 74.3692C88.1381 78.5199 81.7163 82.4095 75.1639 86.1164C76.7825 73.6122 79.1319 61.2645 81.7424 48.9169C81.7764 48.7621 81.7764 48.6018 81.7424 48.447C92.7347 50.4694 103.828 51.8986 114.974 52.7282C114.851 52.8883 114.77 53.0768 114.739 53.2764V53.172ZM161.728 90.3715C157.734 86.9257 153.896 83.3232 150.163 79.5902C151.469 78.1805 149.354 76.1443 147.84 77.4496C142.776 81.8613 137.659 86.0642 132.177 89.98C131.864 77.9456 132.177 65.4413 130.115 53.6158C143.611 54.3206 157.029 54.5816 170.082 54.8166C165.461 66.2506 163.529 78.3111 161.676 90.476L161.728 90.3715ZM216.783 87.5522C211.562 83.6365 206.185 79.7207 200.677 76.1966C200.715 75.8734 200.638 75.547 200.459 75.2749C200.281 75.0029 200.012 74.8025 199.7 74.7089C199.388 74.6154 199.054 74.6348 198.755 74.7636C198.456 74.8925 198.212 75.1225 198.066 75.4134C197.909 75.5546 197.792 75.7347 197.727 75.9355C194.644 80.8565 190.99 85.3955 186.841 89.4579C183.996 77.9978 181.385 66.4333 178.018 55.1037H183.473C194.699 55.3909 206.054 55.5736 217.41 55.4431C215.948 65.9112 216.783 77.0058 216.783 87.5522ZM269.985 83.2188C263.479 79.9564 257.215 76.2312 251.242 72.072C251.096 71.9832 250.93 71.9327 250.759 71.9251C250.588 71.9175 250.418 71.9531 250.264 72.0285C250.111 72.104 249.979 72.2168 249.881 72.3567C249.782 72.4966 249.721 72.6591 249.702 72.829C249.597 72.895 249.5 72.974 249.415 73.064C245.394 77.8412 241.453 82.6445 237.458 87.4478C234.221 76.7187 231.115 65.8329 227.016 55.3648C240.434 55.0533 253.827 54.0426 267.14 52.3366C266.696 62.387 268.758 73.0901 270.011 83.2188H269.985ZM318.044 40.1456C320.055 45.6799 322.117 51.2141 324.153 56.7223C326.553 62.0069 328.424 67.5157 329.74 73.1684C321.725 70.5579 314.077 67.5297 306.245 64.4754C306.123 64.4305 305.992 64.4146 305.863 64.4291C305.734 64.4437 305.609 64.4882 305.5 64.5592C305.391 64.6302 305.3 64.7257 305.235 64.8381C305.169 64.9504 305.131 65.0765 305.123 65.2064C304.809 65.3131 304.536 65.5136 304.339 65.7807C300.657 70.9758 296.411 75.7472 291.678 80.0079C287.906 69.9092 283.413 60.0946 278.234 50.6398C291.841 48.3724 305.204 44.8327 318.149 40.0673L318.044 40.1456ZM356.027 17.6953C355.819 17.3424 355.491 17.0766 355.102 16.9471C354.713 16.8175 354.291 16.8329 353.913 16.9905C351.537 13.5185 349.005 8.58471 350.623 4.64286C352.425 0.205015 355.166 7.5144 355.844 9.18512C356.523 10.8558 356.863 12.8137 357.28 14.6411C356.801 15.633 356.383 16.653 356.027 17.6953ZM359.786 14.8238C360.55 13.4756 361.423 12.1922 362.397 10.9864C363.193 10.0449 364.066 9.17174 365.007 8.37587C366.469 7.12283 369.523 6.13084 369.341 8.95018C369.054 13.4402 364.12 16.4423 359.943 17.7475C360.045 17.5744 360.091 17.3736 360.073 17.1732C360.073 16.5989 359.943 15.7897 359.786 14.8238Z" fill="#D6A8C6"/>
</svg>

<svg xmlns="http://www.w3.org/2000/svg" width="374" height="96" fill="none" xmlns:v="https://vecta.io/nano"><path d="M372.186 22.003c-2.6-.47-5.22-.26-7.65-.757a31.69 31.69 0 0 1-3.184-.835c3.013-.91 5.72-2.624 7.83-4.96 2.167-2.428 4.307-6.213 2.61-9.502s-6.057-2.193-8.432 0c-1.68 1.538-3.146 3.294-4.36 5.22-1.514-5.952-4.594-13.914-9.45-10.233-2.35 1.8-1.906 6.213-1.436 8.745a16.66 16.66 0 0 0 4.099 8.354C302.616 51.7 241.48 52.702 183.552 51.292c-55.97-1.357-115.332-.6-164.644-30.673a11.28 11.28 0 0 0 3.837-6.422c.223-1.522-.047-3.075-.77-4.433s-1.862-2.448-3.25-3.112a5.64 5.64 0 0 0-4.393.368 5.64 5.64 0 0 0-1.741 1.425c-.48.587-.834 1.265-1.045 1.992l-.157.392c-.21-.313-.392-.653-.626-.966C8.7 7.253 4.393 4.8 1.47 7.593s-.992 6.5 1.514 8.432a29.97 29.97 0 0 0 8.745 4.568c0 .392.157.783.235 1.175a1.12 1.12 0 0 0 .365.6 36.55 36.55 0 0 0-3.106 6.344c-1.193 2.504-2.112 5.13-2.74 7.832a1.2 1.2 0 0 0 .874 1.321 1.2 1.2 0 0 0 1.423-.694c.992-2.428 1.566-5.012 2.428-7.492s1.906-4.62 2.61-7.022a1.8 1.8 0 0 0 .888.548 16.03 16.03 0 0 0-.991 6.904c.18 2.346.875 4.624 2.035 6.67.705 1.15 2.767.418 2.27-.966a25.64 25.64 0 0 1-1.827-6.317 27.39 27.39 0 0 1 .366-6.526.6.6 0 0 0 0-.339l.705-.574a132.26 132.26 0 0 0 17.386 10.599c-4.502 12.743-10.302 25-17.307 36.547-.914 1.436.6 2.872 2 2.61a61.11 61.11 0 0 0 23.86-8.667c2.222 7.298 5.297 14.307 9.163 20.884.16.26.38.473.646.622s.564.226.868.226.603-.078.868-.226.488-.363.646-.622c7.153-11.512 15.193-23.286 20.884-35.633.12-.22.18-.467.18-.718s-.062-.497-.18-.718l4.046.835c-.066.087-.12.184-.157.287-4.254 13.415-7.2 27.21-8.797 41.194-.157 1.358 1.566 2.062 2.61 1.488 7.414-4.142 14.662-8.545 21.745-13.21 5.22 5.743 11 11.173 16.602 16.63.25.24.563.4.903.462s.7.026 1.008-.107.592-.356.786-.642.3-.622.305-.967c.366-13.052 2.324-26.314 1.958-39.314-.003-.266-.095-.523-.26-.73l11.2.73c-1.253 13.053.287 26.6.783 39.627a1.68 1.68 0 0 0 .218.882c.153.268.377.49.647.637a1.67 1.67 0 0 0 1.746-.083 163.41 163.41 0 0 0 16.994-13.444 89.47 89.47 0 0 0 13.236 13.757c.86.73 2.6.627 2.845-.757 2.062-13.053 3.864-26.836 9.006-39.158h2.48c2.062 12.713 5.378 25.27 8.536 37.748.075.262.217.5.412.7s.436.326.7.395.54.067.803-.004.503-.2.696-.402a55.59 55.59 0 0 0 12.322-15.193c5.795 4.908 11.877 9.476 17.934 14.044 1.096.81 2.6-.313 2.6-1.462.287-11.434 1.67-24.017-.26-35.346h5.064c2.61 12.06 6.736 23.938 10.286 35.738.084.255.23.484.424.67a1.62 1.62 0 0 0 1.483.4c.26-.06.503-.186.703-.364l13.784-16.525v-.13a88.94 88.94 0 0 0 19.422 12.426c1.044.496 2.74 0 2.6-1.488-1.122-11.095-1.044-23.495-3.915-34.145l6.343-.966c3.028 11.147 8.72 22.163 13.314 32.736a1.69 1.69 0 0 0 1.224.79 1.7 1.7 0 0 0 .744-.069c.24-.078.46-.208.642-.382 5.7-4.86 10.71-10.45 14.932-16.63a1.42 1.42 0 0 0 0-.261c7.607 4.284 15.683 7.674 24.07 10.103a1.75 1.75 0 0 0 .787.023c.26-.052.505-.163.717-.324a1.75 1.75 0 0 0 .689-1.37c-.235-6.082-2.924-11.617-5.012-17.255l-7.075-19.135c-.056-.12-.126-.235-.21-.34a169.67 169.67 0 0 0 34.328-18.273c.57 2.38 1.867 4.527 3.7 6.14s4.14 2.615 6.576 2.866a1.33 1.33 0 0 0 .871-.328c.242-.21.4-.5.443-.82a1.33 1.33 0 0 0-.949-1.464 12.82 12.82 0 0 1-5.9-3.002c-.667-.697-1.214-1.5-1.618-2.376 4.19 2.152 8.91 3.058 13.6 2.6.318.02.632-.086.872-.296a1.21 1.21 0 0 0 .407-.826c.02-.32-.086-.632-.297-.872a1.2 1.2 0 0 0-.826-.407zM3.14 10.438c.425-.446.986-.74 1.595-.834s1.232.015 1.773.312a7.23 7.23 0 0 1 1.436 1.227c.81.873 1.465 1.88 1.932 2.976.198.452.372.914.522 1.383a11.41 11.41 0 0 0 .183 1.932c-4.23-2-8.902-4.725-7.44-6.996zm12.504 9.137l-1.28-.522c-.238-1.67-.64-3.315-1.2-4.908a10.03 10.03 0 0 1 .209-1.096c.705-2.376 2.976-5.587 5.456-2.845 2.95 3.368-.444 6.97-3.185 9.372zm57.875 27.4C66.236 57.427 60.154 68.86 53.836 79.773c-3.394-6.135-6.29-12.478-9.346-18.796-.05-.107-.12-.204-.21-.283a.89.89 0 0 0-.652-.227.89.89 0 0 0-.34.092 1.62 1.62 0 0 0-1.384 0 129.3 129.3 0 0 1-19.396 7.127c6.592-10.397 11.27-21.89 13.8-33.936 12 5.797 24.614 10.178 37.617 13.053a1.75 1.75 0 0 0-.418.183zm41.22 6.187c-2.6 11.434-2.6 23.86-2.845 35.686-4.75-4.464-9.764-9.006-14.88-13.157a1.62 1.62 0 0 0-.882-1.495 1.62 1.62 0 0 0-1.728.164c-6.265 4.15-12.687 8.04-19.24 11.747 1.62-12.504 3.968-24.852 6.58-37.2.034-.155.034-.315 0-.47 10.992 2.022 22.086 3.452 33.232 4.28-.123.16-.204.35-.235.548v-.104zm46.99 37.2c-3.994-3.446-7.832-7.048-11.565-10.78 1.306-1.4-.81-3.446-2.323-2.14-5.064 4.412-10.18 8.615-15.663 12.53-.313-12.034 0-24.54-2.062-36.364 13.496.705 26.914.966 39.967 1.2-4.62 11.434-6.553 23.494-8.406 35.66l.052-.105zm55.055-2.82c-5.22-3.916-10.598-7.832-16.106-11.356.038-.323-.04-.65-.218-.922a1.38 1.38 0 0 0-.759-.566c-.312-.094-.646-.074-.945.055s-.543.36-.69.65a1.2 1.2 0 0 0-.339.522c-3.083 4.92-6.737 9.46-10.886 13.522-2.845-11.46-5.456-23.025-8.823-34.354h5.455c11.226.287 22.58.47 33.937.34-1.462 10.468-.627 21.563-.627 32.11zm53.202-4.333c-6.506-3.262-12.77-6.988-18.743-11.147-.146-.09-.312-.14-.483-.147a1.02 1.02 0 0 0-.495.103c-.153.076-.285.188-.383.328a1.01 1.01 0 0 0-.179.472c-.105.066-.202.145-.287.235l-11.957 14.384c-3.237-10.73-6.343-21.615-10.442-32.083a386.19 386.19 0 0 0 40.124-3.028c-.444 10.05 1.618 20.754 2.87 30.882h-.026zm48.06-43.073l6.11 16.577a88.06 88.06 0 0 1 5.587 16.446c-8.015-2.61-15.663-5.64-23.495-8.693-.122-.045-.253-.06-.382-.046a.84.84 0 0 0-.363.13.83.83 0 0 0-.265.279c-.066.112-.104.238-.112.368-.314.107-.587.307-.784.574-3.682 5.195-7.928 9.967-12.66 14.227-3.772-10.1-8.265-19.913-13.444-29.368 13.607-2.267 26.97-5.807 39.915-10.572l-.105.078zm37.983-22.45c-.208-.353-.536-.62-.925-.748s-.81-.114-1.19.043c-2.376-3.472-4.908-8.406-3.3-12.348 1.802-4.438 4.543 2.872 5.22 4.542s1.02 3.63 1.436 5.456c-.48.992-.897 2.012-1.253 3.054zm3.76-2.87a28.35 28.35 0 0 1 2.611-3.837 22.14 22.14 0 0 1 2.61-2.611c1.462-1.253 4.516-2.245 4.334.574-.287 4.5-5.22 7.492-9.398 8.797a.96.96 0 0 0 .13-.574c0-.574-.13-1.384-.287-2.35z" fill="#d6a8c6"/></svg>
